src/pos-icons/send-lock-outline.svg

<svg height="24" viewBox="0 0 24 24" width="24" xmlns="http://www.w3.org/2000/svg"><path d="m23 18v-.5c0-1.38-1.12-2.5-2.5-2.5s-2.5 1.12-2.5 2.5v.5c-.55 0-1 .45-1 1v4c0 .55.45 1 1 1h5c.55 0 1-.45 1-1v-4c0-.55-.45-1-1-1m-1 0h-3v-.5c0-.83.67-1.5 1.5-1.5s1.5.67 1.5 1.5zm-18-11.97 7.5 3.22-7.5-1zm7.5 8.72-7.5 3.22v-2.22zm-9.5-11.75v7l15 2-15 2v7l21-9z"/></svg>

<?xml version="1.0" encoding="UTF-8"?><!DOCTYPE svg PUBLIC "-//W3C//DTD SVG 1.1//EN" "http://www.w3.org/Graphics/SVG/1.1/DTD/svg11.dtd"><svg xmlns="http://www.w3.org/2000/svg" xmlns:xlink="http://www.w3.org/1999/xlink" version="1.1" id="mdi-send-lock-outline" width="24" height="24" viewBox="0 0 24 24"><path d="M23 18V17.5C23 16.12 21.88 15 20.5 15S18 16.12 18 17.5V18C17.45 18 17 18.45 17 19V23C17 23.55 17.45 24 18 24H23C23.55 24 24 23.55 24 23V19C24 18.45 23.55 18 23 18M22 18H19V17.5C19 16.67 19.67 16 20.5 16S22 16.67 22 17.5V18M4 6.03L11.5 9.25L4 8.25L4 6.03M11.5 14.75L4 17.97V15.75L11.5 14.75M2 3L2 10L17 12L2 14L2 21L23 12L2 3Z" /></svg>
